X:45
T:Concertina
Z: id:dc-reel-249
M:C
L:1/8
K:D Major
A2FA BAFA|A2FA BAFA|BAcA BAcA|BAcA BAFA|!
A2FA BAFA|A2FA BAFA|FABc dcdB|AFEF D4:|!
Add2 Add2|AddA BAFA|BAcA BAcA|BAcA BAFA|!
Add2 Add2|AddA BAFA|FABc dcdB|AFEF D4:|!

